X: 23
T:High Reel, The
M:4/4
L:1/8
R:Reel
K:A
"A"a2 fa ec A2|"A"ABcd "E"e2 fg|"A"a2 fa ec A2|"G"Bcdc B=G G2|!
"A"a2 fa ec A2|"A"ABcd "E"e2 f=g|"A"af=ge "D"fded|"G"Bcdc B=G G2:|!
|:"A"c/B/A eA fAeA|"A"cAeA cA A2|"A"c/B/A eA fAeA|"G"Bcdc B=G G2|!
"A"c/B/A eA fAeA|"A"cdef =g2 fg|"D"af=ge "Bm"fded|"G"Bcdc B=G G2:||
